X:1
T:James Gibb editions
T:Herr, unser Herrscher, SWV 343 - Schütz
T:#
%%score [ 1 2 ] 3 4
L:1/8
Q:1/4=200
M:3/2
K:F
V:1 treble nm="Violin I" snm="Vn I"
V:2 treble nm="Violin II" snm="Vn II"
V:3 treble nm="Soprano" snm="S"
V:4 bass nm="Continuo"
V:1
"^Heinrich Schütz\n(1585-1672)""^Herr, unser Herrscher, SWV 343""^Psalm 8" z12 | F4 F4 E4 | %2
 F4 F4 z4 | A4 A4 G4 | F4 F4 E4 | F6 F2 G2 G2 | A6 G2 A2 B2 | c6 B2 A2 G2 | F4 C2 D2 E2 FG | %9
 F2 C2 D2 E2 F2 G2 | A6 BA G2 AG | F6 GA G2 AB | A2 c2 d2 c2 d2 e2 | f6 e2 f2 g2 | a8 g4- | %15
 g4 ^f8 | g8 z4 | (B2 A2) (B2 c2) (A2 B2) | G4 G4 z4 | z12 | (B2 A2) (B2 c2) (A2 B2) | G4 G4 ^F4 | %22
 G6 ^F2 GFGA | B6 A2 G2 ^F2 | G6 d2 g2 f2 | _e2 dc =B2 cd c2 BA | G2 A2 =B2 G2 A2 B2 | %27
 c2 =B2 c2 de f2 g2 | a2 gf e2 d2 e2 fg | f2 g2 a2 f2 g4 | f4 f6 e2 | f12 ||[M:4/4][Q:1/4=100] z8 | %33
 d2 fg e2 ea | e4 f4 |[M:4/4][Q:1/4=100][Q:1/4=100][Q:1/4=100][Q:1/4=100] z8 | z8 | z8 | z8 | z8 | %40
 z8 | z8 | g^f/g/ ed/e/ =f_edc | _e2 d2 c4 | z2 fe/f/ d>e f2 | f3 e f2 z a | g>a b2 b3 a | b8 | %48
 z8 | z8 | z8 | z8 | z8 | z8 | z8 | z4 z2 e2 | ^ffff g/=f/g/a/ g/a/f/g/ | %57
 e/d/e/f/ e/f/g/e/ f/e/f/g/ f/g/e/f/ | d/c/d/_e/ d/=e/f/d/ _e<d f<e | d2 z g gggg | %60
 a/g/a/b/ a/b/g/a/ f/e/f/g/ f/g/a/f/ | g/f/g/a/ g/a/f/g/ e/d/e/f/ e/f/g/e/ | %62
 f/e/f/g/ f/g/e/f/ d/c/d/e/ d/e/f/d/ | _e2 fe de d2 | c4 z4 | e2 a4 z2 | d2 g4 z2 | c2 f4 _e2 | %68
 d2 dd !courtesy!=e2 ^f2 | g8 | a4 z a ab | g>g g2 z2 gg | a2 b2 g4 | f8 | z8 | z8 | z8 | %77
 z b ag fagf | e>e eg fedc | =B2 z2 z4 | z d ee f/d/e/f/ (g/a/)(b/c'/) | a2 z2 z4 | z8 | %83
 z a gf e/d/e/c/ f/e/f/d/ | g/f/g/e/ a/g/a/f/ b/a/g/f/ e>d | d2 z f a2 aa | d2 f2 e4 | e4 z2 de | %88
 fgab g3 f | f8 | z8 | gefg agfe | d2 cB A4 | z4 z2 eg | eg f>f e4 | z8 | f_edf e/d/f/e/ d>c | %97
 c4 z4 | z d de ff/f/ g2 | a4 z4 | z4 (d/c/)(B/A/) (B/A/)(G/^F/) | %101
 (g/f/)(_e/d/) (e/d/)(c/=B/) c2 (f/e/)(d/c/) | (d/c/)(B/A/) (B/A/)(B/c/) d4 | z4 z f ff | %104
 f/e/d/e/ f/e/f/g/ f4 | z8 | z a ef cdef | gaef g2 c2 | z4 z g gg | g/f/e/f/ g/f/g/a/ g2 z c' | %110
 gaef c2 z2 | z2 cd ef ga/=b/ | c'3 c c4 | c8 ||[M:3/2][Q:1/4=200] z12 | (F2 E2) (F2 G2) E4 | %116
 F4 F4 z4 |[M:3/2][Q:1/4=200][Q:1/4=200][Q:1/4=200][Q:1/4=200] (A2 G2) (A2 B2) (G2 A2) | F4 F4 E4 | %119
 F6 F2 G2 G2 | A6 G2 A2 B2 | c6 B2 A2 G2 | F4 C2 D2 E2 FG | F2 C2 D2 E2 F2 G2 | A6 BA G2 AG | %125
 F6 GA G2 AB | (A2 c2) (d2 c2) (d2 e2) | f6 e2 f2 g2 | a8 g4- | g4 ^f8 | g8 z4 | %131
 (B2 A2) (B2 c2) (A2 B2) | G4 G4 z4 | z12 | (B2 A2) (B2 c2) (A2 B2) | G4 G4 ^F4 | G6 ^F2 GFGA | %137
 B6 A2 G2 ^F2 | G6 d2 g2 f2 | _e2 dc =B2 cd c2 BA | G2 A2 =B2 G2 A2 B2 | c2 B2 c2 de f2 g2 | %142
 a2 gf e2 d2[Q:1/4=198] e2[Q:1/4=197] f[Q:1/4=195]g | %143
[Q:1/4=194] f2[Q:1/4=192] g2[Q:1/4=189] a2[Q:1/4=187] f2[Q:1/4=184] g4 | %144
[Q:1/4=180] f4[Q:1/4=175] f6[Q:1/4=170] e2 |[Q:1/4=170] !fermata!f12 |] %146
V:2
 z12 | A4 A4 G4 | F4 F4 z4 | z12 | z12 | A4 A4 G4 | F4 F4 E4 | F6 F2 G2 G2 | A6 G2 A2 B2 | %9
 c6 B2 A2 G2 | F4 C2 D2 E2 DE | F6 E2 FEFG | A6 G2 A2 B2 | c6 B2 A2 G2 | F4 B2 c2 d4 | d4 d8 | %16
 d8 z4 | (G2 ^F2) (G2 A2) F4 | G4 G4 z4 | (B2 A2) (B2 c2) (A2 B2) | G4 G4 ^F4 | G6 G2 A2 A2 | %22
 B6 A2 G2 ^F2 | G6 ^F2 GFGA | B6 A2 G4 | g6 f2 _e2 d2 | _e6 d2 c2 =BA | G6 G2 A2 B2 | %28
 c6 =B2 c2 G2 | c2 _B2 A2 B2 G4 | c4 c8 | c12 ||[M:4/4] z8 | G2 d_e c2 cf | g4 a4 |[M:4/4] z8 | %36
 z8 | z8 | z8 | z8 | z8 | z4 z2 dc/d/ | =BA/B/ c_B A=B c2- | c2 =B2 c2 g^f/g/ | ed/e/ fc B2 c2 | %45
 d2 cB/c/ A2 z f | _e2 f2 g2 f2 | f8 | z8 | z8 | z8 | z8 | z8 | z8 | z8 | z8 | z2 A2 =BBBB | %57
 c/_B/c/d/ c/d/B/c/ A/G/A/B/ A/B/c/A/ | B/A/B/c/ B/c/A/B/ G2 c2 | c2 =B2 c/_B/c/d/ c/d/B/c/ | %60
 A3 B/c/ B3 A/B/ | G3 A/B/ A3 G/A/ | F3 G/A/ G3 F/G/ | _E2 C2 GG G2 | G4 z4 | A2 A4 z2 | G2 G4 z2 | %67
 A2 d2 d3 c | _B2 BB B2 c2 | d6 e2 | ^f4 z d cA | d>d d2 z2 cc | c2 f2 f3 e | f8 | z8 | z8 | %76
 z4 z a gf | egfe dfed | c>c ce dcfe | d2 z2 z d ee | f/d/e/f/ (g/a/)(b/c'/) af f>e | f2 z2 z4 | %82
 z4 z d cB | A/G/A/F/ B/A/B/G/ cagf | e/d/e/c/ f/e/f/d/ g/f/e/d/ d>^c | d2 z d e2 ef | g2 c2 c4 | %87
 c4 defg | ag f4 e2 | f8 | z8 | ecde fcdA | B2 FG C4 | z4 z2 ^ce | ^ce d>d c4 | z4 z2 =cB | %96
 A2 d2 =B c2 B | c4 z4 | z B Bc dd/d/ G>g | ^f2 z2 z4 | %100
 z2 (d/c/)(B/A/) (B/A/)(G/^F/) (g/f/)(_e/d/) | (_e/d/)(c/=B/) c2 (c/_B/)(A/G/) (A/G/)(F/E/) | %102
 (f/_e/)(d/c/) (d/c/)(B/A/) B4 | z4 z d dd | d/c/B/c/ d/c/d/_e/ d4 | z8 | z2 z a efcd | %107
 efga ef g2 | z4 z e ee | e/d/c/d/ e/d/e/f/ e4 | z4 z c GA | E>G F/A/G/B/ A/c/B/d/ c/e/d/f/ | %112
 e/g/f/a/ g/e/f/d/ e f2 e | f8 ||[M:3/2] z12 | (A2 G2) (A2 B2) (G2 A2) | F4 F4 z4 |[M:3/2] z12 | %118
 z12 | (A2 G2) (A2 B2) (G2 A2) | F4 F4 E4 | F6 F2 G2 G2 | A6 G2 A2 B2 | c6 B2 A2 G2 | %124
 F4 C2 D2 E2 DE | F6 E2 FEFG | A6 G2 A2 B2 | c6 B2 A2 G2 | F4 B2 c2 d4 | d4 d8 | d8 z4 | %131
 (G2 ^F2) (G2 A2) F4 | G4 G4 z4 | (B2 A2) (B2 c2) (A2 B2) | G4 G4 ^F4 | G6 G2 A2 A2 | %136
 B6 A2 G2 ^F2 | G6 ^F2 GFGA | B6 A2 G4 | g6 f2 _e2 d2 | _e6 d2 c2 =BA | G6 G2 A2 _B2 | %142
 c6 =B2 c2 G2 | c2 _B2 A2 B2 G4 | c4 c8 | !fermata!c12 |] %146
V:3
"^orTenor" A4 A4 G4 | F4 F4 z4 | A4 A4 G4 | F4 F4 E4 | F6 F2 G2 G2 | A8 E4 | F6 F2 G2 G2 | %7
w: Herr un- ser|Herr- scher,|Herr un- ser|Herr- scher, wie|herr- lich ist dein|Nam, wie|herr- lich ist dein|
 (A6 G2 A2 B2 | c6 B2 A2 G2 | A8) C4 | F6 F2 G2 G2 | (A6 c2 dcde | f6 e2 f2 g2 | a6 g2 f2 e2 | %14
w: Nam, * * *||* wie|herr- lich ist dein|Nam * * * * *|||
 f6) e2 (d2 c2) | (B2 c2) A4 A4 | (B2 A2) (B2 c2) (A2 B2) | G4 G4 z4 | (B2 A2) (B2 c2) (A2 B2) | %19
w: * in al\- *|len * Lan- den,|Herr * un\- * ser *|Herr- scher,|Herr * un\- * ser *|
 G4 G4 ^F4 | G6 G2 A2 A2 | (B6 A2 B2 c2 | d6 c2 B2 A2 | d2 _e2 d2 c2 B2 A2 | G6 AB cBcd | %25
w: Herr- scher, wie|herr- lich ist dein|Nam * * *||||
 _e6 d2 e2 f2 | g6 f2 _e2 d2 | _e6) d2 (c2 B2) | (A2 B2) G4 G4 | z4 c4 (c2 B2) | (A2 B2) G8 | %31
w: ||* in al\- *|len * Lan- den,|in al\- *|len * Lan-|
 F12 ||[M:4/4] F2 AB G2 G_e | =B4 c4 | z4 z2 cB |[M:4/4] AA/A/ AG F2 GA | %36
w: den,|da man dir dan- ket im|Him- mel.|Aus dem|Mun- de der jun- gen Kin- der und|
 (B/A/B/A/ B/A/B/G/ A/G/A/G/ A/G/A/F/ | G>)G G2 GFGA | B2 cB A2 AE | FEGF E4 | D2 z2 dc/d/ GA/B/ | %41
w: Säu\- * * * * * * * * * * * * * * *|* glin- ge hast du ei- ne|Macht zu- ge- rich- tet um|dei- ner Fein- de wil-|len, dass du ver- til- gest den|
 cBAG B2 A2 | G2 z2 z4 | z4 GF/G/ EE | cB/c/ AG/A/ BAGF | A>G G2 cB/c/ AA/c/ | _edcB d2 c2 | B8 | %48
w: Feind und den Rach- gie- ri-|gen,|dass du ver- til- gest,|dass du ver- til- gest den Feind und den Rach-|gie- ri- gen, dass du ver- til- gest der|Feind und den Rach- gie- ri-|gen.|
 c4 z cBc | AA/A/ AB GG/G/ GA | FF/F/ FG EE z A | c3 B A2 d2 | d6 ^c2 | d4 z2 B2 | %54
w: Denn ich wer- de|se- hen, ich wer- de se- hen, ich wer- de|se- hen, ich wer- de se- hen die|Him- mel, dei- ner|Fin- ger|Werk, den|
 cccc (d/c/d/_e/ d/e/c/d/ | B2) BB c2 B2 | A4 G4 | z8 | z4 z2 z c | dddd (_e/d/e/f/ e/f/d/e/ | %60
w: Mon- den und die Ster\- * * * * * * *|* nen, die du be-|rei- test,||den|Mon- den und die Ster\- * * * * * * *|
 c/B/c/d/ c/d/_e/c/ d/c/d/e/ d/e/c/d/ | B/A/B/c/ B/c/d/B/ c/B/c/d/ c/d/B/c/ | %62
w: ||
 A/G/A/B/ A/B/c/A/ B/A/B/c/ B/c/A/B/ | G2 AA =Bc (c>B) | c4 z4 | ^c2 d4 z2 | =B2 c4 z2 | %67
w: |* nen, die du be rei\- *|test.|Was ist,|was ist,|
 A2 B2- TB3 A | B2 FF G2 A2 | B6 c2) | A4 z Acd | =B>B B2 z2 _ee | _e2 d2 c4 | c8 | z8 | %75
w: was ist * der|Mensch, dass du sein ge-|den\- *|kest, was ist des|Men- schen Kind, dass du|dich sein an-|nimmst?||
 z cBA GBAG | F>F FG AcBA | G2 z2 z4 | z8 | z DEE (F/D/E/F/) ((G/A/)) (B/c/) | A2 z2 z4 | %81
w: Du wirst ihn las- sen ei- ne|klei- ne Zeit von Gott ver- las- sen|sein,||a- ber mit Eh\- * * * ren * und *|Schmuck|
 z AGF (E/D/E/C/ F/E/F/D/ | G/F/G/E/ A/G/A/F/ G/A/B/A/ G2) | F2 z2 z4 | z8 | z2 d2 c2 cc | %86
w: wirst du ihn krö\- * * * * * * *||nen.||Du wirst ihn zum|
 B2 A2 G4 | G2 GA Bc d2 | c8 | c4 cABc | dcBA G2 F>E | E4 z4 | z4 z2 Ac | Ac B>A A4 | z4 z2 AG | %95
w: Her- ren ma-|chen ü- ber dei- ner Hän-|de|Werk. Al- les hast du|un- ter sei- ne Fü- sse ge-|than,|Schaf und|Och- sen all- zu- mal,|da- zu|
 F2 B2 (A/G/B/A/) G2 | F2 z2 z4 | z GGA BB/B/ c2 | d2 z2 z4 | z2 (A/G/) (F/E/) (F/E/) (D/C/) D2 | %100
w: auch die wil\- * * * den|Thier,|die Vo- gel un- ter dem Him-|mel|und * die * Fisch * im * Meer,|
 (d/c/) (B/A/) (B/A/) (G/^F/) G2 z2 | z2 (c/B/) (A/G/) (A/G/) (F/E/) F2 | z4 z BBB | %103
w: und * die * Fisch * im * Meer|und * die * Fisch * im * Meer|und was im|
 (B/A/G/A/ B/A/B/c/ B4) | z4 z (dAB | ^FGFG ABAB | cdcd e2) A2 | z4 z ccc | %108
w: Meer * * * * * * * *|ge\- * *||* * * * * het,|und was im|
 (c/B/A/B/ c/B/c/d/ c4) | z4 z (cGA | EFCD EFEF | G2 AB cdef | GABA G4) | F8 || %114
w: Meer * * * * * * * *|ge\- * *||||het.|
[M:3/2] (A2 G2) (A2 B2) (G2 A2) | F4 F4 z4 | (A2 G2) (A2 B2) (G2 A2) |[M:3/2] F4 F4 E4 | %118
w: Herr * un\- * ser *|Herr- scher,|Herr * un\- * ser *|Herr- scher, wie|
 F6 F2 G2 G2 | A8 E4 | F6 F2 G2 G2 | (A6 G2 A2 B2 | c6 B2 A2 G2 | A8 C4 | F6 F2 G2 G2 | %125
w: herr- lich ist dein|Nam, wie|herr- lich ist dein|Nam, * * *||* wie|herr- lich ist dein|
 (A6 c2 dcde | f6 e2 f2 g2 | a6 g2 f2 e2 | f6) e2 d2 c2) | (B2 c2) A4 A4 | %130
w: Nam * * * * *|||* in al\- *|len * Lan- den,|
 (B2 A2) (B2 c2) (A2 B2) | G4 G4 z4 | (B2 A2) (B2 c2) (A2 B2) | G4 G4 ^F4 | G6 G2 A2 A2 | %135
w: Herr * un\- * ser *|Herr- scher,|Herr * un\- * ser *|Herr- scher, wie|herr- lich ist dein|
 (B6 A2 B2 c2 | d6 c2 B2 A2 | d2 _e2 d2 c2 B2 A2 | G6 AB cBcd | _e6 d2 e2 f2 | g6 f2 _e2 d2 | %141
w: Nam * * *||||||
 _e6) d2 (c2 B2) | (A2 B2) G4 G4 | z4 c4 (c2 B2) | (A2 B2) G8 | !fermata!F12 |] %146
w: * in al\- *|len * Lan- den,|in al\- *|len * Lan-|den.|
V:4
 F,4 F,,4 C,4 | F,4 F,,4 C,4 | F,4 F,,4 C,4 | F,4 F,,4 C,4 | F,4 F,,4 C,4 | F,4 F,,4 C,4 | %6
w: ||||||
w: ||||||
 F,4 F,,4 C,4 | F,4 F,,4 C,4 | F,4 F,,4 C,4 | F,4 F,,4 C,4 | F,4 F,,4 C,4 | F,4 F,,4 C,4 | %12
w: ||||||
w: ||||||
 F,4 F,,4 C,4 | F,4 F,,4 C,4 | F,2 E,2 D,2 C,2 B,,2 A,,2 | G,,4 D,,8 | G,,4 G,4 D,4 | %17
w: ||* * * * 6 *|||
w: |||||
 G,,4 G,4 D,4 | G,,4 G,4 D,4 | G,,4 G,4 D,4 | G,,4 G,4 D,4 | G,,4 G,4 D,4 | G,,4 G,4 D,4 | %23
w: ||||||
w: ||||||
 G,,4 G,4 D,4 | G,,4 G,2 F,2 _E,2 D,2 | C,4 G,4 C4 | C,4 G,4 C4 | C,2 G,2 C2 B,2 A,2 G,2 | %28
w: ||||* 6 * * * *|
w: |||||
 F,4 C,2 G,2 C2 B,2 | A,2 G,2 F,4 E,4 | F,4 x4- x4 | F,,12 ||[M:4/4] F,4 C,4 | G,4 C,2 x-x | %34
w: |6 * * *|* 4|||* * 5|
w: ||||||
 C,4 F,,4 |[M:4/4] F,2 E,2 D,2 C,2 | B,,2 G,,2 F,,2 D,2 | C,2 =B,,2 C,2 _B,,A,, | %38
w: ||||
w: ||||
 G,,2 C,2 D,2 ^C,2 | D,2 B,,2 G,,2 A,,2 | D,,2 D,C,/D,/ =B,,2 C,2 | A,,2 !courtesy!_B,,2 C,2 D,2 | %42
w: |||* 6 7 *|
w: ||||
 G,,2 C,2 D,2 _E,2 | F,2 G,2 C,4 | z2 F,,2 G,,2 A,,2 | B,,2 C,2 F,,2 F,2 | C,2 D,2 _E,2 F,2 | %47
w: * * * 6|7 * *|* * 6|7 * * *|* 6 7 *|
w: |||||
 B,,8 | F,,6 G,,2 | A,,2 F,,2 C,2 A,,2 | D,2 G,,2 A,,2 F,,2 | E,4 F,2 G,2 | x4- x4 | D,4 G,4 | %54
w: ||||6 * *|4||
w: |||||||
 F,4 B,,4 | _E,2 D,2 C,4 | D,4 G,4 | C,4 F,4 | B,,4 _E,2 C,2 | x2- x2 C,4 | F,4 B,,4 | _E,4 C,4 | %62
w: |||||4 *||* 6|
w: ||||||||
 D,4 B,,4 | C,2 F,2 G,_E, G,2 | C,4 z4 | A,2 ^F,4 z2 | G,2 E,4 z2 | F,2 D,2 x2- x2 | %68
w: * 6|* * * 6 *||* 6|* 6|* 6 4|
w: ||||||
 B,,4 B,,2 A,,2 | G,,8 | D,4 z ^F, F,2 | G,2 G,2 z2 C,2 | F,2 B,,2 C,4 | F,,8 | C2 B,A, G,B,A,G, | %75
w: * 6 6|||||||
w: * 4 *|||||||
 F,4 E,4 | D,2 B,,2 F,,2 x-x | C,B,, C,2 D,2 x-x | C,4 F,,4 | G,,2 C,2 B,,2 G,,2 | %80
w: |* * * 6|* 6 * * 6||* * * 6|
w: |||||
 D,2 C,2 F,2 C,2 | F,,2 G,,2 A,,2 D,2 | C,2 A,,2 B,,2 C,2 | F,,2 G,,2 A,,2 D,2 | %84
w: ||* 6 6 *||
w: ||||
 C,2 F,,2 x-x A,,2 | D,,2 B,,2 A,,4 | G,,2 F,,2 C,4 | C,4 B,,4 | A,,4 x2- x2 | F,,4 F,2 G,A, | %90
w: * * 5 *||||* 4||
w: ||||||
 B,A,G,F, _E,2 D,2 | C,4 F,!courtesy!=E,D,C, | B,,2 A,,G,, F,,4 | F,2 G,2 A,2 A,,2- | %94
w: ||* 6 * *||
w: ||||
 A,,2 D,2 A,,4 | D,2 B,,2 x2- x2 | F,,2 B,2 x2- x2 | C,2 B,,A,, G,,2 F,,2 | B,,6 _E,2 | %99
w: |* * 6|* * 6|||
w: |||||
 x2- x2 D,4 | G,,8 | C,4 F,,4 | B,,8 | B,,8 | B,,6 C,2 | D,8 | A,,4 A,,3 D, | C,8- | C,8 | C,8 | %110
w: |||||||||||
w: |||||||||||
 C,8 | C,8- | C,8 | F,,8 ||[M:3/2] F,4 F,,4 C,4 | F,4 F,,4 C,4 | F,4 F,,4 C,4 | %117
w: |||||||
w: |||||||
[M:3/2] F,4 F,,4 C,4 | F,4 F,,4 C,4 | F,4 F,,4 C,4 | F,4 F,,4 C,4 | F,4 F,,4 C,4 | F,4 F,,4 C,4 | %123
w: ||||||
w: ||||||
 F,4 F,,4 C,4 | F,4 F,,4 C,4 | F,4 F,,4 C,4 | F,4 F,,4 C,4 | F,4 F,,4 C,4 | %128
w: |||||
w: |||||
 F,2 E,2 D,2 C,2 B,,2 A,,2 | G,,4 D,,8 | G,,4 G,4 D,4 | G,,4 G,4 D,4 | G,,4 G,4 D,4 | %133
w: * * * * 6 *|||||
w: |||||
 G,,4 G,4 D,4 | G,,4 G,4 D,4 | G,,4 G,4 D,4 | G,,4 G,4 D,4 | G,,4 G,4 D,4 | G,,4 G,2 F,2 _E,2 D,2 | %139
w: ||||||
w: ||||||
 C,4 G,4 C4 | C,4 G,4 C4 | C,2 G,2 C2 B,2 A,2 G,2 | F,4 C,2 G,2 C2 B,2 | A,2 G,2 F,4 E,4 | %144
w: ||* 6 * 6 * *||6 * * *|
w: |||||
 F,4 x4- x4 | !fermata!F,,12 |] %146
w: * 4||
w: ||

